icons/4_Outdated/Paddle v1.svg

<svg width="1024" height="1024" viewBox="0 0 1024 1024" fill="none" xmlns="http://www.w3.org/2000/svg">
<g clip-path="url(#clip0_3_626)">
<path d="M512 1024C794.77 1024 1024 794.77 1024 512C1024 229.23 794.77 0 512 0C229.23 0 0 229.23 0 512C0 794.77 229.23 1024 512 1024Z" fill="#54688C"/>
<path d="M718.14 487.119V573.239H707.14C694.71 573.239 686.95 563.749 686.95 553.239V391.539H697.95C710.38 391.539 718.14 401.029 718.14 411.539V487.119ZM259.43 546.239C281.51 544.719 285.43 517.499 284.43 503.319C282.89 481.669 270.54 470.039 250.52 471.419C248.52 471.549 243.97 472.349 237.71 473.649V540.269C242.93 544.809 250.41 546.869 259.44 546.269L259.43 546.239ZM295 453.879C308.27 464.529 315.79 480.989 317.35 502.809C318.8 523.169 314.24 541.059 304.15 554.519C299.278 561.036 293.038 566.407 285.869 570.254C278.699 574.102 270.774 576.332 262.65 576.789C253.44 577.419 244.65 576.259 237.65 573.559V603.929C237.65 612.779 232.99 621.809 222.65 625.469L204.6 632.469V503.069C204.763 498.81 206.152 494.688 208.6 491.199L218.77 477.849C205.58 480.999 184.17 488.199 184.17 488.199L189 464.419C190.43 457.159 193.46 451.169 204.64 448.679C215.12 446.349 236.55 441.679 245.72 441.019C265.79 439.639 282.86 444.089 295.06 453.879H295ZM645.3 506.469C645.3 492.269 641.77 468.469 618.1 468.469C595.69 468.469 593.28 496.699 593.28 508.839C593.28 526.169 596 549.209 619.53 549.209C636.87 549.209 645.3 535.209 645.3 506.499V506.469ZM654.68 391.559C659.972 391.519 665.065 393.578 668.842 397.286C672.618 400.993 674.772 406.047 674.83 411.339V573.209H661.1C657.906 573.146 654.798 572.171 652.14 570.399C649.482 568.627 647.386 566.133 646.1 563.209C638.24 571.379 627.15 575.519 613.02 575.519C597.12 575.519 583.92 569.399 574.85 557.829C565.96 546.489 561.25 530.029 561.25 510.229C561.25 489.569 565.88 472.299 574.65 460.289C583.81 447.739 597.24 441.109 613.49 441.109C624.96 441.109 635.92 445.109 643.68 451.889V391.559H654.68ZM521.35 506.469C521.35 492.269 517.82 468.469 494.15 468.469C471.74 468.469 469.32 496.699 469.32 508.839C469.32 526.169 472.04 549.209 495.57 549.209C512.91 549.209 521.35 535.209 521.35 506.499V506.469ZM532 391.559C537.292 391.519 542.385 393.578 546.162 397.286C549.939 400.993 552.092 406.047 552.15 411.339V573.209H538.42C535.226 573.146 532.118 572.171 529.46 570.399C526.802 568.627 524.706 566.133 523.42 563.209C515.56 571.379 504.47 575.519 490.34 575.519C474.44 575.519 461.24 569.399 452.17 557.829C443.28 546.489 438.57 530.029 438.57 510.229C438.57 489.569 443.2 472.299 451.97 460.289C461.13 447.739 474.56 441.109 490.81 441.109C502.28 441.109 513.24 445.109 521 451.889V391.559H532ZM398.85 530.789V513.399C389.368 514.663 380.017 516.772 370.91 519.699C357.51 523.939 354.91 529.029 354.91 536.399C354.91 543.769 363.57 548.709 371.66 548.709C385.39 548.709 398.86 539.829 398.86 530.789H398.85ZM330 481.349C330 481.349 331 474.499 332.88 462.099C334.76 449.699 354.16 444.829 354.16 444.829C361.988 442.672 370.044 441.447 378.16 441.179H381.16C409.77 441.179 430.06 458.179 430.06 481.509V573.239H417.3C414.017 573.125 410.812 572.205 407.969 570.558C405.126 568.912 402.733 566.59 401 563.799C392.26 571.559 380.42 575.079 363.57 575.079C341.28 575.079 323.82 558.499 323.82 537.339C323.82 515.989 339.88 499.719 367.89 492.699C378.025 490.125 388.336 488.307 398.74 487.259C397.45 467.509 384.57 467.509 380.19 467.509C363.79 467.509 329.98 481.349 329.98 481.349H330ZM806.69 478.889C806.69 469.719 796.58 466.299 790.2 466.299C772.02 466.299 759.5 481.889 758.2 505.509C781.2 503.169 806.64 496.589 806.64 478.889H806.69ZM787.64 548.379C819.02 548.379 839.73 529.589 839.73 529.589L833.92 554.589C831.92 562.989 826.79 568.109 818.07 570.229C817.4 570.399 800.3 574.749 787.16 574.749C750 574.749 727 549.179 727 507.999C727 489.369 733.06 472.349 744.06 460.079C755.48 447.339 771.8 440.329 790.06 440.329C820.45 440.329 837.88 454.259 837.88 478.539C837.88 498.359 826.88 513.039 805.12 522.149C789.12 528.849 771.12 530.839 761.3 531.769C764.97 543.149 777.07 548.369 787.69 548.369L787.64 548.379Z" fill="white"/>
</g>
<defs>
<clipPath id="clip0_3_626">
<rect width="1024" height="1024" fill="white"/>
</clipPath>
</defs>
</svg>

<svg xmlns="http://www.w3.org/2000/svg" width="1024" height="1024" fill="none">
   <g clip-path="url(#a)">
      <path fill="#54688C" d="M512 1024c282.77 0 512-229.23 512-512S794.77 0 512 0 0 229.23 0 512s229.23 512 512 512Z"/>
      <path fill="#fff" d="M718.14 487.119v86.12h-11c-12.43 0-20.19-9.49-20.19-20v-161.7h11c12.43 0 20.19 9.49 20.19 20v75.58Zm-458.71 59.12c22.08-1.52 26-28.74 25-42.92-1.54-21.65-13.89-33.28-33.91-31.9-2 .13-6.55.93-12.81 2.23v66.62c5.22 4.54 12.7 6.6 21.73 6l-.01-.03Zm35.57-92.36c13.27 10.65 20.79 27.11 22.35 48.93 1.45 20.36-3.11 38.25-13.2 51.71a55.721 55.721 0 0 1-41.5 22.27c-9.21.63-18-.53-25-3.23v30.37c0 8.85-4.66 17.88-15 21.54l-18.05 7v-129.4a22.142 22.142 0 0 1 4-11.87l10.17-13.35c-13.19 3.15-34.6 10.35-34.6 10.35l4.83-23.78c1.43-7.26 4.46-13.25 15.64-15.74 10.48-2.33 31.91-7 41.08-7.66 20.07-1.38 37.14 3.07 49.34 12.86H295Zm350.3 52.59c0-14.2-3.53-38-27.2-38-22.41 0-24.82 28.23-24.82 40.37 0 17.33 2.72 40.37 26.25 40.37 17.34 0 25.77-14 25.77-42.71v-.03Zm9.38-114.91a20 20 0 0 1 20.15 19.78v161.87H661.1a16.746 16.746 0 0 1-15-10c-7.86 8.17-18.95 12.31-33.08 12.31-15.9 0-29.1-6.12-38.17-17.69-8.89-11.34-13.6-27.8-13.6-47.6 0-20.66 4.63-37.93 13.4-49.94 9.16-12.55 22.59-19.18 38.84-19.18 11.47 0 22.43 4 30.19 10.78v-60.33h11Zm-133.33 114.91c0-14.2-3.53-38-27.2-38-22.41 0-24.83 28.23-24.83 40.37 0 17.33 2.72 40.37 26.25 40.37 17.34 0 25.78-14 25.78-42.71v-.03ZM532 391.559a20 20 0 0 1 20.15 19.78v161.87h-13.73a16.746 16.746 0 0 1-15-10c-7.86 8.17-18.95 12.31-33.08 12.31-15.9 0-29.1-6.12-38.17-17.69-8.89-11.34-13.6-27.8-13.6-47.6 0-20.66 4.63-37.93 13.4-49.94 9.16-12.55 22.59-19.18 38.84-19.18 11.47 0 22.43 4 30.19 10.78v-60.33h11Zm-133.15 139.23v-17.39a160.72 160.72 0 0 0-27.94 6.3c-13.4 4.24-16 9.33-16 16.7 0 7.37 8.66 12.31 16.75 12.31 13.73 0 27.2-8.88 27.2-17.92h-.01ZM330 481.349s1-6.85 2.88-19.25 21.28-17.27 21.28-17.27a103.162 103.162 0 0 1 24-3.65h3c28.61 0 48.9 17 48.9 40.33v91.73H417.3a19.998 19.998 0 0 1-16.3-9.44c-8.74 7.76-20.58 11.28-37.43 11.28-22.29 0-39.75-16.58-39.75-37.74 0-21.35 16.06-37.62 44.07-44.64a211.39 211.39 0 0 1 30.85-5.44c-1.29-19.75-14.17-19.75-18.55-19.75-16.4 0-50.21 13.84-50.21 13.84h.02Zm476.69-2.46c0-9.17-10.11-12.59-16.49-12.59-18.18 0-30.7 15.59-32 39.21 23-2.34 48.44-8.92 48.44-26.62h.05Zm-19.05 69.49c31.38 0 52.09-18.79 52.09-18.79l-5.81 25c-2 8.4-7.13 13.52-15.85 15.64-.67.17-17.77 4.52-30.91 4.52-37.16 0-60.16-25.57-60.16-66.75 0-18.63 6.06-35.65 17.06-47.92 11.42-12.74 27.74-19.75 46-19.75 30.39 0 47.82 13.93 47.82 38.21 0 19.82-11 34.5-32.76 43.61-16 6.7-34 8.69-43.82 9.62 3.67 11.38 15.77 16.6 26.39 16.6l-.05.01Z"/>
   </g>
   <defs>
      <clipPath id="a">
         <path fill="#fff" d="M0 0h1024v1024H0z"/>
      </clipPath>
   </defs>
</svg>
